X: 18687
T: I'm Not Fed Up With The Pacific Ocean
R: reel
M: 4/4
K: Gmajor
DGA|B3 (B B)B Ac|B3 (B B)B Ac|Bc AB GA FG|E3 (E E) FGA
B3 (B B)B Ac|B3 (B B)B Ac|Bc AB GA FA|G2 (G G):|
Bc^c|d2 cB AGFG|g2 fg edce|d2 cB AGFG|E3 (E E) Bc^c|
d2 cB AGFG|g2 fg edce|d2 cB AGFA|G2 (G G):|
DGA|B3 (B B)B Ac|Bc AB GA FG|E3 (E E) GFG|E3 (E E) DGA|
B3 (B B)B Ac|Bc AB GA FA|G3 (G G) GFA|G3 (G G):|

